X: 9
T: The Broken Pledge
R: reel
M: 4/4
L: 1/8
K: Edor
| e|: edBA BE E2 | dBAG FDDF | EFGA Beed |((3B=cB) Ac Begf | edBA B2 ec |
((3dcB) AG FDDF | EFGA Beed |((3B=cB) AF FEEe:| edBA B2 ef | gfge fdBc |
dBAF ABde | ((3fga) eg fdBd | edBA B2 ef | gfge fdBA | ~GFGA Beed | ((3B=cB) AF FEEe:|


Tune 1423	Setting 28458

